X: 21466
T: Kevin McHugh's
R: jig
M: 6/8
K: Amajor
|:B|c2 e efe|c2 B ABc|BAF EFA|BAF EFA|
c2 e efe|c2 B ABc|BAF EFA|A2 G A2:|
|:d|c2 A ABc|dcd Bcd|c2 A AGA|Bcd e2 d|
cBA ABc|d2 d c3|BAF EFA|BAG A2:|

